raw/symbols/axs.svg

<svg width="42" height="42" viewBox="0 0 42 42" fill="none" xmlns="http://www.w3.org/2000/svg">
<circle cx="21" cy="21" r="21" fill="#0055D5"/>
<path fill-rule="evenodd" clip-rule="evenodd" d="M10.6058 13.0625C10.6058 13.0625 8.23108 11.1636 8.06776 15.8536C7.90444 19.4881 7.90886 26.5452 9.59059 29.8795C10.3012 31.1337 11.2503 30.7495 13.0159 29.4997C14.5519 28.3647 20.1091 23.2419 22.4618 20.994C24.8145 18.7462 29.586 12.2985 30.5792 16.6794C30.972 18.521 31.4575 20.0843 31.0868 24.1693C30.972 25.4279 30.4335 26.3818 27.9793 24.6772C26.1254 23.4848 24.3642 22.2041 24.3642 22.2041C24.3642 22.2041 24.0244 21.5947 23.221 22.5839C22.5898 23.3744 22.272 23.5687 23.2828 24.1693C24.298 24.7699 29.4315 28.3117 31.4002 28.8637C33.0245 29.3363 33.9514 29.3274 34 26.1345C33.9912 23.5996 33.8455 16.3438 32.923 13.2524C32.2256 11.327 31.2015 10.4525 28.9901 12.6165C26.7787 14.7804 19.8046 21.5461 15.9909 24.6109C13.4617 26.5099 12.3802 28.2234 11.4268 25.057C10.7559 22.659 9.88633 15.1956 12.6318 16.6176C14.3489 17.439 15.2052 17.4346 14.5343 17.9513C13.8633 18.4636 11.9344 20.2345 11.9344 20.2345C11.9344 20.2345 11.3385 20.7158 11.6166 21.7581C11.8947 22.4867 11.8947 22.8489 13.391 21.4401C14.8874 20.0313 15.9909 18.967 15.9909 18.967C15.9909 18.967 16.2292 18.5916 16.9399 19.285C17.6506 19.9783 17.7653 20.1726 17.7653 20.1726C17.7653 20.1726 17.9551 20.6893 18.7143 19.7928C19.4779 18.8963 19.9679 18.3487 18.5245 17.5097C17.0856 16.6617 10.6058 13.0625 10.6058 13.0625Z" fill="#F3F3F3"/>
</svg>

<svg xmlns="http://www.w3.org/2000/svg" width="42" height="42" fill="none"><circle cx="21" cy="21" r="21" fill="#0055D5"/><path fill="#F3F3F3" fill-rule="evenodd" d="M10.606 13.063s-2.375-1.9-2.538 2.79c-.164 3.635-.16 10.692 1.523 14.027.71 1.254 1.66.87 3.425-.38 1.536-1.135 7.093-6.258 9.446-8.506 2.352-2.248 7.124-8.695 8.117-4.315.393 1.842.878 3.405.508 7.49-.115 1.259-.654 2.213-3.108.508a87.619 87.619 0 0 1-3.615-2.473s-.34-.61-1.143.38c-.631.79-.949.985.062 1.585 1.015.6 6.148 4.143 8.117 4.695 1.625.472 2.551.463 2.6-2.73-.009-2.534-.154-9.79-1.077-12.882-.697-1.925-1.722-2.8-3.933-.636-2.211 2.164-9.185 8.93-13 11.995-2.528 1.899-3.61 3.612-4.563.446-.671-2.398-1.54-9.861 1.205-8.44 1.717.822 2.573.818 1.902 1.334-.67.513-2.6 2.284-2.6 2.284s-.595.48-.317 1.523c.278.729.278 1.09 1.774-.318 1.496-1.409 2.6-2.473 2.6-2.473s.238-.375.949.318c.71.693.825.888.825.888s.19.516.95-.38c.763-.897 1.253-1.444-.19-2.283-1.44-.848-7.92-4.448-7.92-4.448Z" clip-rule="evenodd"/></svg>
